!!!!SEGMENT: pl-kk--kk-i-382--093-003_haslinger--msza-graduale.krn
!!!cenid: 18xx:1599
!!!COM: Haslinger
!!!COM-rismid: pe30052852
!!!CDT:
!!!CNT:
!!!OPR: Msza
!!!OTL: Graduale
!!!OMV: 003
!!!PDT:
!!!AGN: Sacred; Mass
!!!SMS-siglum: PL-Kk
!!!SMS-shelfmark: Kk.I.382
!!!SMS-shelfwork: 093-003 M
!!!SMS-variant:
!!!SMS-altvar:
!!!NIFC-rismid: 1001142971
!!!URL-scan: http://repozytorium.nifc.pl/skany/pl-kk-nut--i-382
!!!ONB-nifc: S/T1 od 0056, T2 od 0131, A/B1 od 0201, B2 od 0274. Części Mszy: 1. Kyrie, 2. Gloria, 3. Graduale, 4. Credo, 5. Offertorium, 6. Sanctus, 7. Benedictus, 8. Agnus
!!!key:
**kern	**text	**dynam	**kern	**text	**dynam	**kern	**text	**dynam	**kern	**text	**dynam
*part4	*part4	*part4	*part3	*part3	*part3	*part2	*part2	*part2	*part1	*part1	*part1
*staff4	*staff4	*	*staff3	*staff3	*	*staff2	*staff2	*	*staff1	*staff1	*
*group1	*	*	*group1	*	*	*group1	*	*	*group1	*	*
*Iempty	*	*	*Iempty	*	*	*Itenor	*	*	*Itenor	*	*
*I"Baſso II	*	*	*I"Baſso Imo	*	*	*I"Tenore II	*	*	*I"Tenor I	*	*
*I'B II	*	*	*I'B I	*	*	*I'T II	*	*	*I'T I	*	*
*clefF4	*	*	*clefF4	*	*	*clefG2	*	*	*clefG2	*	*
*	*	*	*	*	*	*ITrd7c12	*	*	*ITrd7c12	*	*
*k[b-e-a-]	*	*	*k[b-e-a-]	*	*	*k[b-e-a-]	*	*	*k[b-e-a-]	*	*
*E-:	*	*	*E-:	*	*	*E-:	*	*	*E-:	*	*
*M4/4	*	*	*M4/4	*	*	*M4/4	*	*	*M4/4	*	*
*met(c)	*	*	*met(c)	*	*	*met(c)	*	*	*met(c)	*	*
*all\right	*	*	*all\right	*	*	*all\right	*	*	*all\right	*	*
=1	=1	=1	=1	=1	=1	=1	=1	=1	=1	=1	=1
!LO:TX:b:B:t=Andante	!	!	!	!	!	!LO:TX:b:t=2.	!	!	!LO:TX:a:t=3.	!	!
!	!	!LO:DY:b:rj:problem:na środku pięciolinii	!LO:TX:a:t=1.	!	!	!LO:TX:a:B:t=Andante	!	!	!LO:TX:a:B:t=Andante	!	!
4.E-\	Do-	f	1r	.	.	1r	.	.	1r	.	.
8E-\	-mi-	.	.	.	.	.	.	.	.	.	.
!	!	!	!	!	!LO:DY:b	!	!	!	!	!	!
2D\	-ne	.	.	.	f	.	.	.	.	.	.
=2	=2	=2	=2	=2	=2	=2	=2	=2	=2	=2	=2
!	!	!	!LO:TX:a:B:t=Andante	!	!	!	!	!	!	!	!
4C/	mi-	.	4.A-\	Do-	.	1r	.	.	1r	.	.
4C/	-se-	.	.	.	.	.	.	.	.	.	.
.	.	.	8A-\	-mi-	.	.	.	.	.	.	.
*	*	*	*2\right	*	*	*	*	*	*	*	*
4BB-/	-re-	.	2G\	-ne	.	.	.	.	.	.	.
4BB-/	-re	.	.	.	.	.	.	.	.	.	.
=3	=3	=3	=3	=3	=3	=3	=3	=3	=3	=3	=3
!	!	!	!	!	!	!	!	!LO:DY:a:rj:problem:na środku pięciolinii	!	!	!
2AA-/	no-	.	4A-\	mi-	.	4.c\	Do-	f	1r	.	.
.	.	.	4E-\	-se-	.	.	.	.	.	.	.
.	.	.	.	.	.	8c\	-mi-	.	.	.	.
2GG/	-stri	.	4E-\	-re-	.	2B-\	-ne	.	.	.	.
.	.	.	4E-\	-re	.	.	.	.	.	.	.
!LO:LB:g=original	!	!	!LO:LB:g=original	!	!	!	!	!	!	!	!
=4	=4	=4	=4	=4	=4	=4	=4	=4	=4	=4	=4
!	!	!	!	!	!	!	!	!	!	!	!LO:DY:b:rj
4.FF/	Do-	.	2F\	no-	.	2A/	mi-	.	4.e-\	Do-	f
8FF/	-mi-	.	.	.	.	.	.	.	8e-\	-mi-	.
*	*	*	*	*	*	*	*	*	*2\right	*	*
2BB-/	-ne	.	2F\	-stri	.	2B-/	-se-	.	2d\	-ne	.
=5	=5	=5	=5	=5	=5	=5	=5	=5	=5	=5	=5
4E-\	mi-	.	4G\	Do-	.	2B-/	-re-	.	4.c\	mi-	.
4E-\	-se-	.	4G\	-mi-	.	.	.	.	.	.	.
.	.	.	.	.	.	.	.	.	8c\	-se-	.
4F\	-re-	.	4F\	-ne	.	2A/	-re	.	4c\	-re-	.
4F\	-re	.	4F\	mi-	.	.	.	.	4c\	-re	.
!	!	!	!	!	!	!LO:LB:g=original	!	!	!LO:LB:g=original	!	!
=6	=6	=6	=6	=6	=6	=6	=6	=6	=6	=6	=6
2BB-/	no-	.	2F\	-se-	.	2F/	no-	.	2d\	no-	.
2BB-/	-stri	.	2D\	-re-	.	2F/	-stri	.	2B-\	-stri	.
=7	=7	=7	=7	=7	=7	=7	=7	=7	=7	=7	=7
!	!	!	!LO:TX:b:t=1.	!	!	!	!	!	!	!	!
4.A-X\	Do-	.	1r	.	.	4.B-/	Do-	.	4.f\	Do-	.
8A-\	-mi-	.	.	.	.	8B-/	-mi-	.	8f\	-mi-	.
*2\right	*	*	*	*	*	*	*	*	*	*	*
2G\	-ne	.	.	.	.	2B-/	-ne	.	2e-\	-ne	.
=8	=8	=8	=8	=8	=8	=8	=8	=8	=8	=8	=8
4F\	mi-	.	4.A-\	-Do-	.	4B-\	mi-	.	4d\	mi-	.
4F\	-se-	.	.	.	.	4B-\	-se-	.	4d\	-se-	.
.	.	.	8A-\	-mi-	.	.	.	.	.	.	.
!LO:LB:g=original	!	!	!	!	!	!	!	!	!	!	!
4E-\	-re-	.	2G\	-ne	.	4B-\	-re-	.	4e-\	-re-	.
4E-\	-re	.	.	.	.	4B-\	-re	.	4e-\	-re	.
!	!	!	!LO:LB:g=original	!	!	!	!	!	!	!	!
=9	=9	=9	=9	=9	=9	=9	=9	=9	=9	=9	=9
*	*	*	*	*	*	*2\right	*	*	*	*	*
2AA-/	no-	.	4A-\	mi-	.	2c\	no-	.	2e-\	no-	.
.	.	.	4A-\	-se-	.	.	.	.	.	.	.
2GG/	-stri	.	4B-\	-re-	.	2B-\	-stri	.	2e-\	-stri	.
.	.	.	4B-\	-re	.	.	.	.	.	.	.
=10	=10	=10	=10	=10	=10	=10	=10	=10	=10	=10	=10
4.C/	mi-	.	4.G\	mi-	.	4.c\	mi-	.	4.e-\	mi-	.
8C/	-se-	.	8G\	-se-	.	8c\	-se-	.	8e-\	-se-	.
4D\	-re-	.	4G\	-re-	.	4B-\	-re-	.	4d\	-re-	.
4E-\	-re	.	4G\	-re	.	4B-\	-re	.	4c\	-re	.
!	!	!	!	!	!	!LO:LB:g=original	!	!	!LO:LB:g=original	!	!
=11	=11	=11	=11	=11	=11	=11	=11	=11	=11	=11	=11
1D	no-	.	(<2G\	no-	.	(>2B-/	no-	.	1d	no-	.
.	.	.	2F#X\)	.	.	2A/)	.	.	.	.	.
=12	=12	=12	=12	=12	=12	=12	=12	=12	=12	=12	=12
!	!	!	!	!	!	!LO:TX:t=P:problem:kreska taktowa podwójna	!	!	!	!	!
1GG;	-stri	.	1G	-stri	.	1B;	-stri	.	1d;	-stri	.
=13	=13	=13	=13	=13	=13	=13	=13	=13	=13	=13	=13
!LO:TX:b:t=3.	!	!	!LO:TX:a:t=2.	!	!	!LO:TX:b:t=1.	!	!	!	!	!LO:DY:b:rj:t=po
1r	.	.	1r	.	.	1r	.	.	4.e-\	Do-	p
.	.	.	.	.	.	.	.	.	8e-\	-mi-	.
.	.	.	.	.	.	.	.	.	2d\	-ne	.
=14	=14	=14	=14	=14	=14	=14	=14	=14	=14	=14	=14
!	!	!	!LO:TX:b:t=V&colon; S&colon;	!	!	!	!	!	!	!	!
1r	.	.	1r	.	.	4.A-/	Do-	p	4c\	mi-	.
.	.	.	.	.	.	.	.	.	4c\	-se-	.
.	.	.	.	.	.	8A-/	-mi-	.	.	.	.
.	.	.	.	.	.	2G/	-ne	.	4B\	-re-	.
.	.	.	.	.	.	.	.	.	4B\	-re	.
!	!	!	!LO:PB:g=original	!	!	!	!	!	!	!	!
=15	=15	=15	=15	=15	=15	=15	=15	=15	=15	=15	=15
!	!	!	!	!	!LO:DY:b:rj	!	!	!	!	!	!
1r	.	.	4.E-\	Do-	p	4G/	mi-	.	2g\	no-	.
.	.	.	.	.	.	4G/	-se-	.	.	.	.
.	.	.	8E-\	-mi-	.	.	.	.	.	.	.
.	.	.	2D\	-ne	.	4A/	-re-	.	2f\	-stri	.
.	.	.	.	.	.	4B\	-re	.	.	.	.
!LO:PB:g=original	!	!	!	!	!	!	!	!	!	!	!
=16	=16	=16	=16	=16	=16	=16	=16	=16	=16	=16	=16
!	!	!LO:DY:a:rj	!	!	!	!	!	!	!	!	!
4.C/	Do-	p	4G\	mi-	.	2c\	no-	.	4.e-\	Do-	.
.	.	.	4G\	-se-	.	.	.	.	.	.	.
8C/	-mi-	.	.	.	.	.	.	.	8e-\	-mi-	.
2GG/	-ne	.	4G\	-re-	.	2B\	-stri	.	2d\	-ne	.
.	.	.	4G\	-re	.	.	.	.	.	.	.
!	!	!	!	!	!	!LO:LB:g=original	!	!	!LO:LB:g=original	!	!
=17	=17	=17	=17	=17	=17	=17	=17	=17	=17	=17	=17
!	!	!	!	!	!	!LO:TX:b:t=1.	!	!	!	!	!
4AA-/	mi-	.	4E-X\	mi-	.	1r	.	.	4c\	mi-	.
4AA-/	-se-	.	4En\	-se-	.	.	.	.	4c\	-se-	.
4AA-/	-re-	.	4F\	-re-	.	.	.	.	4c\	-re-	.
4AA-/	-re	.	4F#X\	-re	.	.	.	.	4c\	-re	.
=18	=18	=18	=18	=18	=18	=18	=18	=18	=18	=18	=18
2GG/	no-	.	2G\	no-	.	4d\	mi-	.	2B\	no-	.
.	.	.	.	.	.	4d\	-se-	.	.	.	.
2GG/	-stri	.	2G\	-stri	.	4g\	-re-	.	2B\	-stri	.
.	.	.	.	.	.	4g\	-re	.	.	.	.
!	!	!	!LO:LB:g=original	!	!	!	!	!	!	!	!
=19	=19	=19	=19	=19	=19	=19	=19	=19	=19	=19	=19
!	!	!LO:DY:b:rj	!	!	!LO:DY:a:rj:problem:na środku pięciolinii	!	!	!LO:DY:a:rj:problem:na środku pięciolinii:t=fo.	!	!	!LO:DY:a:rj:problem:na środku pięciolinii
4.BBn/	mi-	f	(4F\	no-	f	2g\	no-	f	4.d\	Do-	f
.	.	.	2G\)	.	.	.	.	.	.	.	.
8BB/	-se-	.	.	.	.	.	.	.	8d\	-mi-	.
2C/	-re-	.	.	.	.	2c\	-stri	.	2e-\	-ne	.
.	.	.	4G\	-stri	.	.	.	.	.	.	.
=20	=20	=20	=20	=20	=20	=20	=20	=20	=20	=20	=20
4BB-X/	-re	.	4G\	mi-	.	4d-X\	mi-	.	4e\	mi-	.
4BB-/	no-	.	4G\	-se-	.	4d-\	-se-	.	4e\	-se-	.
4AAn/	.	.	4C/	-re-	.	4c\	-re-	.	4f\	-re-	.
4AA/	.	.	4F\	-re	.	4c\	-re	.	4f\	-re	.
!LO:LB:g=original	!	!	!	!	!	!	!	!	!LO:LB:g=original	!	!
=21	=21	=21	=21	=21	=21	=21	=21	=21	=21	=21	=21
2C/	.	.	4An\	mi-	.	2e-X\	no-	.	2f#X\	no-	.
.	.	.	4A\	-se-	.	.	.	.	.	.	.
2BBn/	-stri	.	4D\	-re-	.	2dnX\	-stri	.	2g\	-stri	.
.	.	.	4G\	-re	.	.	.	.	.	.	.
!	!	!	!	!	!	!LO:LB:g=original	!	!	!	!	!
=22	=22	=22	=22	=22	=22	=22	=22	=22	=22	=22	=22
4.D/	mi-	.	4.F\	mi-	.	4.B/	mi-	.	4.a-X\	mi-	.
8D/	-se-	.	8A-X\	-se-	.	8F/	-se-	.	8B\	-se-	.
4D/	-re-	.	4A-\	-re-	.	4F/	-re-	.	4B\	-re-	.
4D/	-re	.	4F\	-re	.	4A-X/	-re	.	4B\	-re	.
!	!	!	!LO:LB:g=original	!	!	!	!	!	!	!	!
=23	=23	=23	=23	=23	=23	=23	=23	=23	=23	=23	=23
2E-X\	no-	.	2G\	no-	.	2G/	no-	.	2c\	no-	.
2En\	-stri	.	2G\	-stri	.	2B-X/	-stri	.	2d-X\	-stri	.
=24	=24	=24	=24	=24	=24	=24	=24	=24	=24	=24	=24
4.F\	mi-	.	4.F\	mi-	.	4.B-/	mi-	.	4.dnX\	mi-	.
8F\	-se-	.	8B-\	-se-	.	8B-/	-se-	.	8d\	-se-	.
4G\	-re-	.	4B-\	-re-	.	4B-/	-re-	.	4e-\	-re-	.
4G\	-re	.	4B-\	-re	.	4B-/	-re	.	4e-\	-re	.
!	!	!	!	!	!	!	!	!	!LO:LB:g=original	!	!
=25	=25	=25	=25	=25	=25	=25	=25	=25	=25	=25	=25
2G\	no-	.	2B-\	no-	.	2d-X\	no-	.	2e\	no-	.
2A-X\	-stri	.	2A-X\	-stri	.	2c\	-stri	.	2f\	-stri	.
!LO:LB:g=original	!	!	!	!	!	!LO:LB:g=original	!	!	!	!	!
=26	=26	=26	=26	=26	=26	=26	=26	=26	=26	=26	=26
4.An\	mi-	.	4.c\	mi-	.	4.e-\	mi-	.	4.g-X\	mi-	.
8AAn/	-se-	.	8c\	-se-	.	8e-\	-se-	.	8g-\	-se-	.
4AA/	-re-	.	4c\	-re-	.	4e-\	-re-	.	4g-\	-re-	.
4AA/	-re	.	4c\	-re	.	4e-\	-re	.	4g-\	-re	.
=27	=27	=27	=27	=27	=27	=27	=27	=27	=27	=27	=27
1BB-	no-	.	(2.B-\	no-	.	(2e-\	no-	.	(<2gnX\	no-	.
.	.	.	.	.	.	2d\)	.	.	2f\)	.	.
.	.	.	4A-\)	.	.	.	.	.	.	.	.
!	!	!	!LO:LB:g=original	!	!	!	!	!	!	!	!
=28	=28	=28	=28	=28	=28	=28	=28	=28	=28	=28	=28
2E-;\	-stri	.	2G;\	-stri	.	2B-;\	-stri	.	2e-;\	-stri	.
4r;	.	.	4r;	.	.	4r	.	.	4r;	.	.
!	!	!LO:DY:b:rj	!	!	!LO:DY:b:rj	!	!	!LO:DY:a:rj:problem:na środku pięciolinii	!	!	!LO:DY:b:rj:problem:na środku pięciolinii
4E-\	Te	p	4G\	Te	p	4B-\	Te	p	4e-\	Te	p
=29	=29	=29	=29	=29	=29	=29	=29	=29	=29	=29	=29
4En\	e-	.	4G\	e-	.	4B-\	e-	.	4d-X\	e-	.
4E\	-nim	.	4G\	-nim	.	4B-\	-nim	.	4d-\	-nim	.
4E\	ex-	.	4G\	ex-	.	4B-\	ex-	.	4c\	ex-	.
4E\	-spe-	.	4G\	-pe-	.	4B-\	-pe-	.	4c\	-spe-	.
!	!	!	!	!	!	!LO:LB:g=original	!	!	!LO:LB:g=original	!	!
=30	=30	=30	=30	=30	=30	=30	=30	=30	=30	=30	=30
4.F\	-cta-	.	4.F\	-cta-	.	4.A-X/	-cta-	.	4.c\	-cta-	.
8F\	-vi-	.	8A-\	-vi-	.	8c\	-vi-	.	8f\	-vi-	.
4F\	-mus	.	4A-\	-mus,	.	4c\	-mus	.	4f\	-mus	.
4F\	te	.	4A-\	te	.	4c\	te	.	4f\	te	.
!LO:LB:g=original	!	!	!	!	!	!	!	!	!	!	!
=31	=31	=31	=31	=31	=31	=31	=31	=31	=31	=31	=31
4F#X\	e-	.	4An\	e-	.	4c\	e-	.	4e-X\	e-	.
4F#\	-nim	.	4A\	-nim	.	4c\	-nim	.	4e-\	-nim	.
4F#\	ex-	.	4A\	ex-	.	4c\	ex-	.	4dnX\	ex-	.
4F#\	-spe-	.	4A\	-spe-	.	4c\	-spe-	.	4d\	-spe-	.
!	!	!	!LO:LB:g=original	!	!	!	!	!	!	!	!
=32	=32	=32	=32	=32	=32	=32	=32	=32	=32	=32	=32
4.G\	-cta-	.	4.G\	-cta-	.	4.B-X\	-cta-	.	4.d\	-cta-	.
8G\	-vi-	.	8B-X\	-vi-	.	8d\	-vi-	.	8g\	-vi-	.
2G\	-mus	.	2B-\	-mus	.	2d\	-mus	.	2g\	-mus	.
=33	=33	=33	=33	=33	=33	=33	=33	=33	=33	=33	=33
!	!	!LO:DY:b:rj:problem:na środku pięciolinii	!LO:TX:a:t=3.	!	!	!	!	!	!	!	!LO:DY:ba:rj:problem:na środku pięciolinii
2A-\	e-	f	1r	.	.	2c\	e-	.	2g\	e-	f
2A-\	-sto	.	.	.	.	2c\	-sto	.	2f\	-sto	.
!	!	!	!	!	!	!LO:LB:g=original	!	!	!LO:LB:g=original	!	!
=34	=34	=34	=34	=34	=34	=34	=34	=34	=34	=34	=34
4.G\	bra-	.	1r	.	.	4.B-\	bra-	.	4.f\	bra-	.
8G\	-chi-	.	.	.	.	8B-\	-chi-	.	8e-\	-chi-	.
2G\	-um	.	.	.	.	2B-\	-um	.	2e-\	-um	.
!LO:LB:g=original	!	!	!	!	!	!	!	!	!	!	!
=35	=35	=35	=35	=35	=35	=35	=35	=35	=35	=35	=35
2F\	no-	.	1r	.	.	2A-/	no-	.	2e-\	no-	.
4F\	-strum	.	.	.	.	4A-/	-strum	.	4d\	-strum	.
4F\	in	.	.	.	.	4A-/	in	.	4d\	in	.
=36	=36	=36	=36	=36	=36	=36	=36	=36	=36	=36	=36
2E-\	ma-	.	2r	.	.	2G/	ma-	.	2d\	ma-	.
4E-\	-ne	.	4r	.	.	4G/	-ne	.	4c\	-ne	.
!	!	!	!	!	!LO:DY:b:rj	!	!	!	!	!	!
4E-\	in	.	4E-\	in	p	4G/	in	.	4c\	in	.
=37	=37	=37	=37	=37	=37	=37	=37	=37	=37	=37	=37
!	!	!	!	!	!	!LO:TX:a:i:t=as	!	!LO:DY:a:rj:problem:na środku pięciolinii	!	!	!LO:DY:a:rj:problem:na środku pięciolinii:t=po
1D	ma-	.	1F	ma-	.	1A-	ma-	p	(2.B-\	ma-	p
.	.	.	.	.	.	.	.	.	8qd/	.	.
.	.	.	.	.	.	.	.	.	8c\L	.	.
.	.	.	.	.	.	.	.	.	8B-\J)	.	.
!	!	!	!	!	!	!	!	!	!LO:LB:g=original	!	!
=38	=38	=38	=38	=38	=38	=38	=38	=38	=38	=38	=38
4E-\	-ne	.	4E-\	-ne	.	4G/	-ne	.	4B-\	-ne	.
4r	.	.	4r	.	.	4r	.	.	4B-\	et	.
!	!	!	!	!	!	!	!	!	!	!	!LO:DY:a:rj:problem:na środku pięciolinii
2GG/	et	.	4r	.	.	4r	.	.	4e-\	sa-	f
!	!	!	!	!	!LO:DY:a:rj:problem:na środku pięciolinii	!	!	!LO:DY:a:rj:problem:na środku pięciolinii	!	!	!
.	.	.	4E-\	et	f	4B-\	et	f	4d\	-lus	.
!	!	!	!	!	!	!LO:LB:g=original	!	!	!	!	!
=39	=39	=39	=39	=39	=39	=39	=39	=39	=39	=39	=39
2AA-/	sa-	.	4E-\	sa-	.	4A-/	sa-	.	2c\	no-	.
.	.	.	4A-\	-lus	.	4c\	-lus	.	.	.	.
2AAn/	-lus	.	4F\	no-	.	4c\	no-	.	2f\	-stra	.
.	.	.	4F\	-stra	.	4c\	-stra	.	.	.	.
!	!	!	!LO:LB:g=original	!	!	!	!	!	!	!	!
=40	=40	=40	=40	=40	=40	=40	=40	=40	=40	=40	=40
(2BB-/	no-	.	4r	.	.	(4B-\	sa-	.	4r	.	.
.	.	.	4F\	et	.	4d\)	.	.	4d\	et	.
2BBn/)	.	.	4D\	sa-	.	2d\	-lus	.	4g\	sa-	.
.	.	.	4G\	-lus	.	.	.	.	4f\	-lus	.
!LO:LB:g=original	!	!	!	!	!	!	!	!	!	!	!
=41	=41	=41	=41	=41	=41	=41	=41	=41	=41	=41	=41
2C/	-stra	.	4G\	no-	.	(4c\	no-	.	2e-\	no-	.
.	.	.	4E-\	-stra	.	4e-\)	.	.	.	.	.
2C/	in	.	4r	.	.	4e-\	-stra	.	4a-\	-stra	.
.	.	.	4c\	in	.	4e-\	in	.	4g\	in	.
=42	=42	=42	=42	=42	=42	=42	=42	=42	=42	=42	=42
4.D/	tem-	.	4.An\	tem-	.	4.d\	tem-	.	4.f#X\	tem-	.
8D/	-po-	.	8A\	-po-	.	8d\	-po-	.	8f#\	-po-	.
2BBn/	-re	.	2G\	-re	.	2d\	-re	.	2g\	-re	.
!	!	!	!	!	!	!LO:LB:g=original	!	!	!LO:LB:g=original	!	!
=43	=43	=43	=43	=43	=43	=43	=43	=43	=43	=43	=43
4C/	tri-	.	4G\	tri-	.	4c\	tri-	.	4e-\	tri-	.
4C/	-bu-	.	4G\	-bu-	.	4c\	-bu-	.	4e-\	-bu-	.
4AA-/	-la-	.	4A-X\	-la-	.	4c\	-la-	.	4fnX\	-la-	.
4AA-/	-ti-	.	4c\	-ti-	.	4c\	-ti-	.	4f\	-ti-	.
!	!	!	!LO:LB:g=original	!	!	!	!	!	!	!	!
=44	=44	=44	=44	=44	=44	=44	=44	=44	=44	=44	=44
2GG/	-o-	.	2d\	-o-	.	(4c\	-o-	.	2g\	-o-	.
.	.	.	.	.	.	8B\L	.	.	.	.	.
.	.	.	.	.	.	8A\J)	.	.	.	.	.
4GG/	-nis	.	4d\	-nis	.	4B\	-nis	.	4g\	-nis	.
4BBn/	in	.	4G\	in	.	4d\	in	.	4f\	in	.
=45	=45	=45	=45	=45	=45	=45	=45	=45	=45	=45	=45
4.C/	tem-	.	4.G\	tem-	.	4.c\	tem-	.	4.e-\	tem-	.
8C/	-po-	.	8G\	-po-	.	8c\	-po-	.	8e-\	-po-	.
2BB-X/	-re	.	2G\	-re	.	2c\	-re	.	2e\	-re	.
!LO:LB:g=original	!	!	!	!	!	!	!	!	!	!	!
=46	=46	=46	=46	=46	=46	=46	=46	=46	=46	=46	=46
4AA-X/	tri-	.	4F\	tri-	.	4c\	tri-	.	4.f\	tri-	.
4AA-/	-bu-	.	4F\	-bu-	.	4c\	-bu-	.	.	.	.
.	.	.	.	.	.	.	.	.	8f\	-bu-	.
4AAn/	-la-	.	4G-X\	-la-	.	4c\	-la-	.	4e-X\	-la-	.
4AA/	-ti-	.	4G-\	-ti-	.	4c\	-ti-	.	4e-\	-ti-	.
!	!	!	!	!	!	!LO:LB:g=original	!	!	!LO:LB:g=original	!	!
=47	=47	=47	=47	=47	=47	=47	=47	=47	=47	=47	=47
1BB-	-o-	.	(2F\	-o-	.	((2B-X/	-o-	.	(<4e-\	-o-	.
.	.	.	.	.	.	.	.	.	2d\	.	.
.	.	.	2E-\)	.	.	2A/))	.	.	.	.	.
.	.	.	.	.	.	.	.	.	4c\)	.	.
=48	=48	=48	=48	=48	=48	=48	=48	=48	=48	=48	=48
1BB-;	-nis	.	1D;	-nes	.	1F;	-nes	.	1B-;	-nes	.
!	!	!	!LO:LB:g=original	!	!	!	!	!	!	!	!
=49	=49	=49	=49	=49	=49	=49	=49	=49	=49	=49	=49
!	!	!	!LO:TX:a:t=1.	!	!	!LO:TX:b:t=2.	!	!	!LO:TX:a:t=3.	!	!
4.E-\	Do-	.	1r	.	.	1r	.	.	1r	.	.
8E-\	-mi-	.	.	.	.	.	.	.	.	.	.
2D\	-ne	.	.	.	.	.	.	.	.	.	.
=50	=50	=50	=50	=50	=50	=50	=50	=50	=50	=50	=50
!	!	!	!	!	!LO:DY:a:rj:problem:na środku pięciolinii	!	!	!	!	!	!
4C/	mi-	.	4.A-\	Do-	f	1r	.	.	1r	.	.
4C/	-se-	.	.	.	.	.	.	.	.	.	.
.	.	.	8A-\	-mi-	.	.	.	.	.	.	.
4BB-/	-re-	.	2G\	-ne	.	.	.	.	.	.	.
4BB-/	-re	.	.	.	.	.	.	.	.	.	.
!LO:LB:g=original	!	!	!	!	!	!	!	!	!	!	!
=51	=51	=51	=51	=51	=51	=51	=51	=51	=51	=51	=51
!	!	!	!	!	!	!	!	!LO:DY:a:rj:problem:na środku pięciolinii	!	!	!
2AA-/	no-	.	4A-\	mi-	.	4.c\	Do-	f	1r	.	.
.	.	.	4E-\	-se-	.	.	.	.	.	.	.
.	.	.	.	.	.	8c\	-mi-	.	.	.	.
2GG/	-stri	.	4E-\	-re-	.	2B-\	-ne	.	.	.	.
.	.	.	4E-\	-re	.	.	.	.	.	.	.
=52	=52	=52	=52	=52	=52	=52	=52	=52	=52	=52	=52
!	!	!	!	!	!	!	!	!	!	!	!LO:DY:a:rj:problem:na środku pięciolinii
4.FF/	Do-	.	2F\	no-	.	2A/	mi-	.	4.e-\	Do-	f
8FF/	-mi-	.	.	.	.	.	.	.	8e-\	-mi-	.
2BB-/	-ne	.	2F\	-stri	.	2B-/	-se-	.	2d\	-ne	.
=53	=53	=53	=53	=53	=53	=53	=53	=53	=53	=53	=53
4.D\	mi-	.	4.A-\	Do-	.	2B-\	-re-	.	4.f\	Do-	.
8D\	-se-	.	8A-\	-mi-	.	.	.	.	8f\	-mi-	.
2E-\	-re-	.	2G\	-ne	.	2B-\	-re	.	2e-\	-ne	.
!	!	!	!LO:LB:g=original	!	!	!LO:LB:g=original	!	!	!LO:LB:g=original	!	!
=54	=54	=54	=54	=54	=54	=54	=54	=54	=54	=54	=54
4AA-/	-re	.	4A-\	mi-	.	4c\	mi-	.	4c\	mi-	.
4AA-/	no-	.	4A-\	-se-	.	4c\	-se-	.	4c\	-se-	.
4FF/	.	.	4A-\	-re-	.	4c\	-re-	.	4f\	-re-	.
4FF/	.	.	4A-\	-re	.	4c\	-re	.	4f\	-re	.
=55	=55	=55	=55	=55	=55	=55	=55	=55	=55	=55	=55
(1BB-	-stri	.	(2G\	no-	.	1B-	no-	.	(2e-\	no-	.
.	.	.	2F\)	.	.	.	.	.	2d\)	.	.
!LO:LB:g=original	!	!	!	!	!	!	!	!	!	!	!
=56	=56	=56	=56	=56	=56	=56	=56	=56	=56	=56	=56
1E-;<)	.	.	1G;	-stri	.	1B-;	-stri	.	1e-;<	-stri	.
==	==	==	==	==	==	==	==	==	==	==	==
*-	*-	*-	*-	*-	*-	*-	*-	*-	*-	*-	*-
!!!system-decoration: [g1]
!!!RDF**kern: > = above
!!!RDF**kern: < = below
!!!AIN: 2 empty 2 tenor
!!!ENC: Andrzej Kubiczek
!!!END: 2021-03-25
!!!ENC: Andrzej Borzym
!!!END: 2021-03-05
